X:27
T:Collier's
Z: id:dc-jig-21
M:6/8
L:1/8
K:D Mixolydian
A|FDF A2B|cAd cAG|Ad^c d2e|fed cAG|!
FDF A2B|cAd cAG|Ade fge|ed^c d2:|!
g|fdg fdc|Adc Ade|f3 fed|AB^c dfg|!
a3 g3|fed cAG|Ade fge|ed^c d2:|!

